src/assets/img/icons/duotone-icons/Devices/Generator.svg

<?xml version="1.0" encoding="UTF-8"?>
<svg width="24px" height="24px" viewBox="0 0 24 24" version="1.1" xmlns="http://www.w3.org/2000/svg" xmlns:xlink="http://www.w3.org/1999/xlink">
    <!-- Generator: Sketch 52.2 (67145) - http://www.bohemiancoding.com/sketch -->
    <title>Stockholm-icons / Devices / Generator</title>
    <desc>Created with Sketch.</desc>
    <g id="Stockholm-icons-/-Devices-/-Generator" stroke="none" stroke-width="1" fill="none" fill-rule="evenodd">
        <rect id="bound" x="0" y="0" width="24" height="24"></rect>
        <rect id="Combined-Shape" fill="#335EEA" opacity="0.3" x="2" y="6" width="20" height="14" rx="2"></rect>
        <path d="M5,4 L7,4 C7.55228475,4 8,4.44771525 8,5 L8,6 L4,6 L4,5 C4,4.44771525 4.44771525,4 5,4 Z M17,4 L19,4 C19.5522847,4 20,4.44771525 20,5 L20,6 L16,6 L16,5 C16,4.44771525 16.4477153,4 17,4 Z" id="Combined-Shape" fill="#335EEA"></path>
        <path d="M7,12 L7,11 C7,10.4477153 7.44771525,10 8,10 C8.55228475,10 9,10.4477153 9,11 L9,12 L10,12 C10.5522847,12 11,12.4477153 11,13 C11,13.5522847 10.5522847,14 10,14 L9,14 L9,15 C9,15.5522847 8.55228475,16 8,16 C7.44771525,16 7,15.5522847 7,15 L7,14 L6,14 C5.44771525,14 5,13.5522847 5,13 C5,12.4477153 5.44771525,12 6,12 L7,12 Z" id="Combined-Shape" fill="#335EEA"></path>
        <rect id="Rectangle-46-Copy" fill="#335EEA" x="14" y="12" width="4" height="2" rx="1"></rect>
    </g>
</svg>

<svg width="24" height="24" viewBox="0 0 24 24" xmlns="http://www.w3.org/2000/svg"><g fill="none" fill-rule="evenodd"><path d="M0 0h24v24H0z"/><rect fill="#335EEA" opacity=".3" x="2" y="6" width="20" height="14" rx="2"/><path d="M5 4h2a1 1 0 011 1v1H4V5a1 1 0 011-1zm12 0h2a1 1 0 011 1v1h-4V5a1 1 0 011-1zM7 12v-1a1 1 0 012 0v1h1a1 1 0 010 2H9v1a1 1 0 01-2 0v-1H6a1 1 0 010-2h1z" fill="#335EEA"/><rect fill="#335EEA" x="14" y="12" width="4" height="2" rx="1"/></g></svg>
